X: 4424
T: Bonnie Aboyne
R: reel
M: 4/4
K: Amajor
E|c>B AF EC E2|E/C/E/A/ c/f/e/d/ cB BE|c>B AF EC E=G|
F/A/^G/B/ A/f/e/d/ cA A:|e|a>g f>e f>e cA|E/C/E/A/ c/f/e/d/ cB Be|
a>g f>e f>e cE|F/A/^G/B/ A/f/e/d/ cA Ae|a>g f>e f>e cA|
E/C/E/A/ c/f/e/d/ cB BE|c>B AF EC E=G|F/A/^G/B/ A/f/e/d/ cA A||

